res/CHEM-core.svg

<?xml version="1.0" encoding="UTF-8" standalone="no"?>
<svg width="165" height="380" viewBox="0 0 165 380" version="1.1"
   xmlns:xlink="http://www.w3.org/1999/xlink"
   xmlns="http://www.w3.org/2000/svg" xmlns:svg="http://www.w3.org/2000/svg">

   <defs>
      <linearGradient id="section-stops">
         <stop offset="0" stop-color="#282828" />
         <stop offset="1" stop-color="#181818" />
      </linearGradient>
      <linearGradient id="top-gradient" x1="0" y1="0" x2="0" y2="172" xlink:href="#section-stops"
         gradientUnits="userSpaceOnUse" />
      <linearGradient id="m-gradient" x1="0" y1="0" x2="0" y2="170" xlink:href="#section-stops"
         gradientUnits="userSpaceOnUse" gradientTransform="matrix(1,0,0,0.99415205,0,2.9941521)" />
      <linearGradient id="foot-gradient" x1="0" y1="0" x2="0" y2="32" xlink:href="#section-stops"
         gradientUnits="userSpaceOnUse" gradientTransform="matrix(1,0,0,0.89610398,0,40.428547)" />
   </defs>

   <rect id="g-top--sctn" fill="url(#top-gradient)" x="0" y="0" width="165.5" height="168" />
   <g transform="translate(0,168)">
      <path id="1--d0" stroke="#202020" stroke-width="1" d="m 0,0.5 h 165" />
      <path id="1--d1" stroke="#161616" stroke-width="1" d="m 0,1.5 h 165" />
      <path id="1--d2" stroke="#101010" stroke-width="1" d="m 0,2.5 h 165" />
      <path id="1--d3" stroke="#404040" stroke-width="1" d="m 0,3.5 h 165" />
   </g>
   <rect id="g-m--sctn" fill="url(#m-gradient)" x="0" y="172" width="165.5" height="170"
      style="display:inline;fill:url(#m-gradient);stroke-width:1" />
   <g transform="translate(0,342)">
      <path id="1--d0" stroke="#202020" stroke-width="1" d="m 0,0.5 h 165" />
      <path id="1--d1" stroke="#161616" stroke-width="1" d="m 0,1.5 h 165" />
      <path id="1--d2" stroke="#101010" stroke-width="1" d="m 0,2.5 h 165" />
      <path id="1--d3" stroke="#404040" stroke-width="1" d="m 0,3.5 h 165" />
   </g>
   <rect id="g-foot--sct" fill="url(#foot-gradient)" x="0" y="346" width="165.5" height="34.5" />

   <g id="logo" transform="translate(32,20)" style="display:inline">
      <path id="pachde" fill="#f9a54b"
         d="m 39.404297,23.550781 -2.800781,5.539063 -4.800782,-1.285156 -0.912109,3.410156 4.072266,1.089844 -2.0625,4.097656 -3.173829,-0.84961 -0.914062,3.410157 2.447266,0.65625 -2.804688,5.539062 3.410156,0.916016 2.804688,-5.542969 5.191406,1.392578 -2.802734,5.541016 3.408203,0.912109 2.802734,-5.539062 4.798828,1.283203 0.914063,-3.408203 -4.087891,-1.09375 2.076172,-4.095703 3.175781,0.851562 0.91211,-3.410156 -2.462891,-0.660156 2.804688,-5.542969 -3.394532,-0.910157 -2.820312,5.53711 L 39.994141,30 42.814453,24.462891 Z m 24.880859,1.234375 -0.941406,3.517578 2.380859,0.640625 -1.298828,4.845703 c -0.786379,-1.687788 -2.069798,-2.771061 -3.849609,-3.25 -1.85092,-0.49567 -3.624159,-0.147196 -5.320313,1.044922 -1.69197,1.181661 -2.837396,2.88758 -3.435547,5.119141 -0.587693,2.198099 -0.461574,4.238802 0.375,6.121094 0.838666,1.882291 2.208123,3.079534 4.111329,3.589843 1.58949,0.426654 3.245545,0.142008 4.966797,-0.853515 l -0.486329,1.816406 7.384766,1.978516 0.945313,-3.519531 -2.509766,-0.671876 4.9375,-18.433593 z m -25.912109,8.433594 5.191406,1.388672 -2.076172,4.097656 -5.195312,-1.392578 z m 21.828125,1.507812 c 0.224698,0.01007 0.456366,0.04754 0.695312,0.111329 0.80102,0.215418 1.428971,0.715573 1.882813,1.501953 0.464298,0.790562 0.500474,1.916993 0.109375,3.378906 -0.382733,1.432633 -0.971018,2.386573 -1.763672,2.861328 -0.780105,0.468481 -1.573427,0.594462 -2.382812,0.376953 C 57.763395,42.69351 57.119941,42.103549 56.8125,41.1875 c -0.303283,-0.928597 -0.301443,-1.967175 0.0039,-3.113281 0.324173,-1.20885 0.841509,-2.112649 1.554688,-2.712891 0.545864,-0.453318 1.155982,-0.664961 1.830078,-0.634766 z" />
      <path id="hexoid" fill="#f9a54b"
         d="M 62.846577,-4e-7 13.123024,13.87512 0.27645025,63.875121 37.153432,100 86.876988,86.12693 l 12.846562,-50 z M 50.000003,11.409473 c 9.326229,0 17.870198,3.291502 24.534513,8.779162 l 4.675179,4.58168 C 85.052538,31.53172 88.590537,40.342354 88.590537,50 c 0,2.241993 -0.199831,4.435404 -0.565088,6.57168 l -1.57126,6.116357 C 82.691068,73.530977 74.242038,82.161032 63.513298,86.161482 l -6.211887,1.733875 c -2.36446,0.451221 -4.803582,0.69518 -7.301408,0.69518 -9.32828,0 -17.87362,-3.293395 -24.538579,-8.783231 L 20.790313,75.231735 C 14.947152,68.470226 11.409469,59.657938 11.409469,50 c 0,-2.241983 0.199829,-4.435394 0.565087,-6.571669 l 1.571267,-6.112289 C 17.310819,26.464746 25.767549,17.827853 36.507037,13.830389 l 6.163104,-1.719648 c 2.373312,-0.454749 4.822029,-0.701268 7.329862,-0.701268 z" />
      <path id="CHEM" fill="#f9a54b"
         d="m 28.542236,53.421572 c -1.206961,0 -2.236858,0.230596 -3.089682,0.69314 -0.845595,0.462545 -1.49312,1.131758 -1.941214,2.006267 -0.448094,0.874498 -0.672819,1.936922 -0.672819,3.187251 v 4.325555 c 0,1.243095 0.224725,2.305519 0.672819,3.187251 0.448094,0.874508 1.095619,1.541682 1.941214,2.004226 0.852824,0.455322 1.882721,0.682983 3.089682,0.682983 0.99737,0 1.881365,-0.211852 2.654688,-0.638262 0.773323,-0.42641 1.412943,-1.044347 1.918856,-1.85381 0.513138,-0.816685 0.870893,-1.800284 1.073258,-2.949432 h -3.077487 c -0.166228,0.787784 -0.474745,1.397811 -0.922839,1.831454 -0.448093,0.42641 -0.996017,0.640291 -1.646476,0.640291 -0.831141,0 -1.478666,-0.252274 -1.941214,-0.758185 C 26.145701,65.274389 25.91804,64.558873 25.91804,63.633785 V 59.30823 c 0,-0.925099 0.227661,-1.640615 0.682982,-2.146516 0.462548,-0.513145 1.110073,-0.770394 1.941214,-0.770394 0.426412,0 0.808785,0.09762 1.148468,0.292707 0.346911,0.195138 0.639619,0.47701 0.87812,0.845597 0.245729,0.361374 0.42709,0.805852 0.542727,1.333442 h 3.077487 c -0.195138,-1.156361 -0.547924,-2.13996 -1.061063,-2.949422 -0.505912,-0.809453 -1.150501,-1.4274 -1.931051,-1.85381 -0.773323,-0.42642 -1.657318,-0.638262 -2.654688,-0.638262 z m 8.140906,0.162615 V 69.34563 h 2.969754 v -6.38467 h 5.658997 v 6.38467 h 2.971785 V 53.584187 h -2.971785 v 6.514752 h -5.658997 v -6.514752 z m 15.068299,0 V 69.34563 h 10.559801 v -2.862022 h -7.588016 v -3.532806 h 6.39483 v -2.862021 h -6.39483 v -3.642573 h 7.588016 v -2.862021 z m 13.269371,0 V 69.34563 h 2.699406 V 58.358965 l 2.90674,9.230424 h 2.622165 L 76.155867,58.1496 v 11.19603 h 2.699396 V 53.584187 H 74.940319 L 71.93804,64.207001 68.935763,53.584187 Z" />
   </g>

   <g transform="translate(40,200)" id="g5" style="display:inline">
      <path id="HAKEN--ctl-label" fill="#a6a6a6"
         d="M 6.1035156e-8,11.152 V 4.2724609e-7 H 1.4080001 V 4.7840004 h 5.504 V 4.2724609e-7 h 1.408 V 11.152 h -1.408 V 6.0960004 h -5.504 V 11.152 Z M 9.855992,11.152 14.111992,4.2724609e-7 h 1.12 L 19.487992,11.152 h -1.536 l -3.264,-9.1359996 -3.28,9.1359996 z m 2.368,-2.6239996 0.432,-1.264 h 4.032 l 0.464,1.264 z m 9.919986,-0.928 v -1.792 L 27.695978,4.2724609e-7 h 1.888 z M 21.039978,11.152 V 4.2724609e-7 h 1.408 V 11.152 Z m 6.928,0 -3.792,-5.9999996 1.056,-0.976 4.384,6.9759996 z m 3.216013,0 V 4.2724609e-7 h 7.344 V 1.2640004 h -5.936 v 3.568 h 5.392 v 1.264 h -5.392 v 3.792 h 5.936 V 11.152 Z m 9.359985,0 V 4.2724609e-7 h 1.488 L 47.743976,9.3280004 h -0.32 V 4.2724609e-7 h 1.408 V 11.152 h -1.52 l -5.68,-9.3439996 h 0.32 V 11.152 Z" />
      <path id="MIDI1--ctl-label" transform="translate(0,42)" fill="#a6a6a6"
         d="M 6.1035156e-8,11.152 V 0 H 2.0800001 l 3.504,8.816 h -0.256 L 8.8320001,0 H 10.896 V 11.152 H 9.4880001 v -9.52 l 0.112,0.016 -3.456,8.56 h -1.376 l -3.472,-8.56 0.112,-0.016 v 9.52 z M 13.424011,11.152 V 0 h 1.408 v 11.152 z m 3.936005,0 V 0 h 3.088 q 2.736,0 4.24,1.488 1.504,1.472 1.504,4.176 0,2.656 -1.488,4.08 -1.488,1.408 -4.272,1.408 z m 1.408,-1.296 h 1.536 q 1.424,0 2.416,-0.416 1.008,-0.432 1.52,-1.36 0.528,-0.944 0.528,-2.464 0,-1.52 -0.528,-2.464 -0.512,-0.96 -1.488,-1.408 -0.96,-0.448 -2.32,-0.448 h -1.664 z m 9.503987,1.296 V 0 h 1.408 v 11.152 z m 11.488009,0 V 2.16 l 0.416,0.704 h -3.328 V 1.776 h 1.936 q 0.48,0 0.72,-0.208 0.256,-0.208 0.256,-0.72 V 0 h 1.36 v 11.152 z" />
      <path id="MIDI2--ctl-label" transform="translate(0,84)" fill="#a6a6a6"
         d="M 6.1035156e-8,11.264 V 0.112 H 2.0800001 l 3.504,8.816 h -0.256 l 3.504,-8.816 H 10.896 V 11.264 H 9.4880001 v -9.52 l 0.112,0.016 -3.456,8.56 h -1.376 l -3.472,-8.56 0.112,-0.016 v 9.52 z M 13.424011,11.264 V 0.112 h 1.408 v 11.152 z m 3.936005,0 V 0.112 h 3.088 q 2.736,0 4.24,1.488 1.504,1.472 1.504,4.176 0,2.656 -1.488,4.08 -1.488,1.408 -4.272,1.408 z m 1.408,-1.296 h 1.536 q 1.424,0 2.416,-0.416 1.008,-0.432 1.52,-1.36 0.528,-0.944 0.528,-2.464 0,-1.52 -0.528,-2.464 -0.512,-0.96 -1.488,-1.408 -0.96,-0.448 -2.32,-0.448 h -1.664 z m 9.503987,1.296 V 0.112 h 1.408 v 11.152 z m 7.600009,0 v -1.12 q 0.56,-0.448 1.296,-0.992 0.752,-0.544 1.504,-1.184 0.768,-0.64 1.408,-1.36 0.656,-0.72 1.056,-1.52 0.4,-0.8 0.4,-1.648 0,-0.944 -0.528,-1.536 -0.528,-0.592 -1.552,-0.592 -0.752,0 -1.264,0.352 -0.496,0.336 -0.752,0.944 -0.24,0.592 -0.256,1.36 l -1.328,-0.096 q 0,-0.784 0.24,-1.472 0.24,-0.704 0.704,-1.232 0.464,-0.544 1.136,-0.848 0.688,-0.32 1.568,-0.32 1.008,0 1.76,0.432 0.752,0.416 1.168,1.184 0.432,0.752 0.432,1.776 0,0.896 -0.336,1.728 -0.32,0.832 -0.912,1.584 -0.576,0.752 -1.328,1.424 -0.752,0.672 -1.6,1.264 -0.848,0.592 -1.728,1.088 l 0.352,-0.48 h 6 v 1.264 z" />
   </g>


</svg>

<?xml version="1.0" encoding="UTF-8" standalone="no"?>
<svg width="165" height="380" viewBox="0 0 165 380" version="1.1" xml:space="preserve"
   xmlns="http://www.w3.org/2000/svg"
   xmlns:svg="http://www.w3.org/2000/svg">

   <linearGradient id="panel-gradient" x1="0" y1="0" x2="0" y2="380" gradientUnits="userSpaceOnUse">
      <stop offset="0" stop-color="#1f1f1f" id="stop1" />
      <stop offset="1" stop-color="#080808" id="stop2" />
   </linearGradient>
   <rect id="g-panel" fill="url(#panel-gradient)" x="0" y="0" width="165" height="380" sodipodi:insensitive="true" />
   <g id="logo" transform="translate(32,20)">
      <path id="pachde" fill="#f9a54b"
         d="M 39.404297 23.550781 L 36.603516 29.089844 L 31.802734 27.804688 L 30.890625 31.214844 L 34.962891 32.304688 L 32.900391 36.402344 L 29.726562 35.552734 L 28.8125 38.962891 L 31.259766 39.619141 L 28.455078 45.158203 L 31.865234 46.074219 L 34.669922 40.53125 L 39.861328 41.923828 L 37.058594 47.464844 L 40.466797 48.376953 L 43.269531 42.837891 L 48.068359 44.121094 L 48.982422 40.712891 L 44.894531 39.619141 L 46.970703 35.523438 L 50.146484 36.375 L 51.058594 32.964844 L 48.595703 32.304688 L 51.400391 26.761719 L 48.005859 25.851562 L 45.185547 31.388672 L 39.994141 30 L 42.814453 24.462891 L 39.404297 23.550781 z M 64.285156 24.785156 L 63.34375 28.302734 L 65.724609 28.943359 L 64.425781 33.789062 C 63.639402 32.101274 62.355983 31.018001 60.576172 30.539062 C 58.725252 30.043392 56.952013 30.391866 55.255859 31.583984 C 53.563889 32.765645 52.418463 34.471564 51.820312 36.703125 C 51.232619 38.901224 51.358738 40.941927 52.195312 42.824219 C 53.033978 44.70651 54.403435 45.903753 56.306641 46.414062 C 57.896131 46.840716 59.552186 46.55607 61.273438 45.560547 L 60.787109 47.376953 L 68.171875 49.355469 L 69.117188 45.835938 L 66.607422 45.164062 L 71.544922 26.730469 L 64.285156 24.785156 z M 38.373047 33.21875 L 43.564453 34.607422 L 41.488281 38.705078 L 36.292969 37.3125 L 38.373047 33.21875 z M 60.201172 34.726562 C 60.42587 34.736628 60.657538 34.774102 60.896484 34.837891 C 61.697504 35.053309 62.325455 35.553464 62.779297 36.339844 C 63.243595 37.130406 63.279771 38.256837 62.888672 39.71875 C 62.505939 41.151383 61.917654 42.105323 61.125 42.580078 C 60.344895 43.048559 59.551573 43.17454 58.742188 42.957031 C 57.763395 42.69351 57.119941 42.103549 56.8125 41.1875 C 56.509217 40.258903 56.511057 39.220325 56.816406 38.074219 C 57.140579 36.865369 57.657915 35.96157 58.371094 35.361328 C 58.916958 34.90801 59.527076 34.696367 60.201172 34.726562 z " />
      <path id="hexoid" fill="#f9a54b"
         d="M 62.846577,-4e-7 13.123024,13.87512 0.27645025,63.875121 37.153432,100 86.876988,86.12693 l 12.846562,-50 z M 50.000003,11.409473 c 9.326229,0 17.870198,3.291502 24.534513,8.779162 l 4.675179,4.58168 C 85.052538,31.53172 88.590537,40.342354 88.590537,50 c 0,2.241993 -0.199831,4.435404 -0.565088,6.57168 l -1.57126,6.116357 C 82.691068,73.530977 74.242038,82.161032 63.513298,86.161482 l -6.211887,1.733875 c -2.36446,0.451221 -4.803582,0.69518 -7.301408,0.69518 -9.32828,0 -17.87362,-3.293395 -24.538579,-8.783231 L 20.790313,75.231735 C 14.947152,68.470226 11.409469,59.657938 11.409469,50 c 0,-2.241983 0.199829,-4.435394 0.565087,-6.571669 l 1.571267,-6.112289 C 17.310819,26.464746 25.767549,17.827853 36.507037,13.830389 l 6.163104,-1.719648 c 2.373312,-0.454749 4.822029,-0.701268 7.329862,-0.701268 z" />
      <path id="CHEM" fill="#f9a54b"
         d="m 28.542236,53.421572 c -1.206961,0 -2.236858,0.230596 -3.089682,0.69314 -0.845595,0.462545 -1.49312,1.131758 -1.941214,2.006267 -0.448094,0.874498 -0.672819,1.936922 -0.672819,3.187251 v 4.325555 c 0,1.243095 0.224725,2.305519 0.672819,3.187251 0.448094,0.874508 1.095619,1.541682 1.941214,2.004226 0.852824,0.455322 1.882721,0.682983 3.089682,0.682983 0.99737,0 1.881365,-0.211852 2.654688,-0.638262 0.773323,-0.42641 1.412943,-1.044347 1.918856,-1.85381 0.513138,-0.816685 0.870893,-1.800284 1.073258,-2.949432 h -3.077487 c -0.166228,0.787784 -0.474745,1.397811 -0.922839,1.831454 -0.448093,0.42641 -0.996017,0.640291 -1.646476,0.640291 -0.831141,0 -1.478666,-0.252274 -1.941214,-0.758185 C 26.145701,65.274389 25.91804,64.558873 25.91804,63.633785 V 59.30823 c 0,-0.925099 0.227661,-1.640615 0.682982,-2.146516 0.462548,-0.513145 1.110073,-0.770394 1.941214,-0.770394 0.426412,0 0.808785,0.09762 1.148468,0.292707 0.346911,0.195138 0.639619,0.47701 0.87812,0.845597 0.245729,0.361374 0.42709,0.805852 0.542727,1.333442 h 3.077487 c -0.195138,-1.156361 -0.547924,-2.13996 -1.061063,-2.949422 -0.505912,-0.809453 -1.150501,-1.4274 -1.931051,-1.85381 -0.773323,-0.42642 -1.657318,-0.638262 -2.654688,-0.638262 z m 8.140906,0.162615 V 69.34563 h 2.969754 v -6.38467 h 5.658997 v 6.38467 h 2.971785 V 53.584187 h -2.971785 v 6.514752 h -5.658997 v -6.514752 z m 15.068299,0 V 69.34563 h 10.559801 v -2.862022 h -7.588016 v -3.532806 h 6.39483 v -2.862021 h -6.39483 v -3.642573 h 7.588016 v -2.862021 z m 13.269371,0 V 69.34563 h 2.699406 V 58.358965 l 2.90674,9.230424 h 2.622165 L 76.155867,58.1496 v 11.19603 h 2.699396 V 53.584187 H 74.940319 L 71.93804,64.207001 68.935763,53.584187 Z" />
   </g>

   <g transform="translate(0, 172)">
      <path id="1--detent0" stroke="#000000" stroke-width=".75" d="M 2,0 h 161"/>
      <path id="1--detent1" stroke="#505050" stroke-width=".5" d="M 2,1 h 161"/>
   </g>
   <g transform="translate(40, 200)" id="g2">
      <path id="HAKEN--ctl-label" fill="#a6a6a6"
         d="M 6.1035156e-8,11.152 V 4.2724609e-7 H 1.4080001 V 4.7840004 h 5.504 V 4.2724609e-7 h 1.408 V 11.152 h -1.408 V 6.0960004 h -5.504 V 11.152 Z M 9.855992,11.152 14.111992,4.2724609e-7 h 1.12 L 19.487992,11.152 h -1.536 l -3.264,-9.1359996 -3.28,9.1359996 z m 2.368,-2.6239996 0.432,-1.264 h 4.032 l 0.464,1.264 z m 9.919986,-0.928 v -1.792 L 27.695978,4.2724609e-7 h 1.888 z M 21.039978,11.152 V 4.2724609e-7 h 1.408 V 11.152 Z m 6.928,0 -3.792,-5.9999996 1.056,-0.976 4.384,6.9759996 z m 3.216013,0 V 4.2724609e-7 h 7.344 V 1.2640004 h -5.936 v 3.568 h 5.392 v 1.264 h -5.392 v 3.792 h 5.936 V 11.152 Z m 9.359985,0 V 4.2724609e-7 h 1.488 L 47.743976,9.3280004 h -0.32 V 4.2724609e-7 h 1.408 V 11.152 h -1.52 l -5.68,-9.3439996 h 0.32 V 11.152 Z" />
      <path id="MIDI1--ctl-label" transform="translate(0, 42)" fill="#a6a6a6"
         d="M 6.1035156e-8,11.152 V 0 H 2.0800001 l 3.504,8.816 h -0.256 L 8.8320001,0 H 10.896 V 11.152 H 9.4880001 v -9.52 l 0.112,0.016 -3.456,8.56 h -1.376 l -3.472,-8.56 0.112,-0.016 v 9.52 z M 13.424011,11.152 V 0 h 1.408 v 11.152 z m 3.936005,0 V 0 h 3.088 q 2.736,0 4.24,1.488 1.504,1.472 1.504,4.176 0,2.656 -1.488,4.08 -1.488,1.408 -4.272,1.408 z m 1.408,-1.296 h 1.536 q 1.424,0 2.416,-0.416 1.008,-0.432 1.52,-1.36 0.528,-0.944 0.528,-2.464 0,-1.52 -0.528,-2.464 -0.512,-0.96 -1.488,-1.408 -0.96,-0.448 -2.32,-0.448 h -1.664 z m 9.503987,1.296 V 0 h 1.408 v 11.152 z m 11.488009,0 V 2.16 l 0.416,0.704 h -3.328 V 1.776 h 1.936 q 0.48,0 0.72,-0.208 0.256,-0.208 0.256,-0.72 V 0 h 1.36 v 11.152 z" />
      <path id="MIDI2--ctl-label" transform="translate(0, 84)" fill="#a6a6a6"
         d="M 6.1035156e-8,11.264 V 0.112 H 2.0800001 l 3.504,8.816 h -0.256 l 3.504,-8.816 H 10.896 V 11.264 H 9.4880001 v -9.52 l 0.112,0.016 -3.456,8.56 h -1.376 l -3.472,-8.56 0.112,-0.016 v 9.52 z M 13.424011,11.264 V 0.112 h 1.408 v 11.152 z m 3.936005,0 V 0.112 h 3.088 q 2.736,0 4.24,1.488 1.504,1.472 1.504,4.176 0,2.656 -1.488,4.08 -1.488,1.408 -4.272,1.408 z m 1.408,-1.296 h 1.536 q 1.424,0 2.416,-0.416 1.008,-0.432 1.52,-1.36 0.528,-0.944 0.528,-2.464 0,-1.52 -0.528,-2.464 -0.512,-0.96 -1.488,-1.408 -0.96,-0.448 -2.32,-0.448 h -1.664 z m 9.503987,1.296 V 0.112 h 1.408 v 11.152 z m 7.600009,0 v -1.12 q 0.56,-0.448 1.296,-0.992 0.752,-0.544 1.504,-1.184 0.768,-0.64 1.408,-1.36 0.656,-0.72 1.056,-1.52 0.4,-0.8 0.4,-1.648 0,-0.944 -0.528,-1.536 -0.528,-0.592 -1.552,-0.592 -0.752,0 -1.264,0.352 -0.496,0.336 -0.752,0.944 -0.24,0.592 -0.256,1.36 l -1.328,-0.096 q 0,-0.784 0.24,-1.472 0.24,-0.704 0.704,-1.232 0.464,-0.544 1.136,-0.848 0.688,-0.32 1.568,-0.32 1.008,0 1.76,0.432 0.752,0.416 1.168,1.184 0.432,0.752 0.432,1.776 0,0.896 -0.336,1.728 -0.32,0.832 -0.912,1.584 -0.576,0.752 -1.328,1.424 -0.752,0.672 -1.6,1.264 -0.848,0.592 -1.728,1.088 l 0.352,-0.48 h 6 v 1.264 z" />
   </g>
   <g transform="translate(0, 345)">
      <path id="1--detent0" stroke="#000000" stroke-width=".75" d="M 2,0 h 161"/>
      <path id="1--detent1" stroke="#505050" stroke-width=".5" d="M 2,1 h 161"/>
   </g>

</svg>
